svgs/regular/child.svg

<svg xmlns="http://www.w3.org/2000/svg" viewBox="0 0 448 512"><!-- Font Awesome Pro 6.0.0-alpha2 by @fontawesome - https://fontawesome.com License - https://fontawesome.com/license (Commercial License) --><path d="M427.358 105.812C419.514 95.094 404.436 92.828 393.811 100.641L325.421 150.797C266.202 194.234 181.796 194.234 122.577 150.797L54.186 100.641C43.561 92.828 28.483 95.094 20.639 105.812C12.811 116.5 15.124 131.516 25.811 139.359L94.202 189.516C104.907 197.369 116.286 203.889 127.999 209.613V488C127.999 501.25 138.749 512 151.999 512S175.999 501.25 175.999 488V384H271.999V488C271.999 501.25 282.749 512 295.999 512S319.999 501.25 319.999 488V209.613C331.712 203.889 343.09 197.369 353.795 189.516L422.186 139.359C432.874 131.516 435.186 116.5 427.358 105.812ZM271.999 336H175.999V226.084C191.661 229.586 207.614 232 223.999 232S256.337 229.586 271.999 226.084V336ZM223.999 144C263.749 144 295.999 111.75 295.999 72S263.749 0 223.999 0S151.999 32.25 151.999 72S184.249 144 223.999 144Z"/></svg>

<svg xmlns="http://www.w3.org/2000/svg" viewBox="0 0 448 512"><!--! Font Awesome Pro 6.0.0-alpha3 by @fontawesome - https://fontawesome.com License - https://fontawesome.com/license (Commercial License) --><path d="M427.4 105.8c-7.844-10.72-22.92-12.98-33.55-5.172l-68.39 50.16c-59.22 43.44-143.6 43.44-202.8 0l-68.39-50.16C43.56 92.83 28.48 95.09 20.64 105.8C12.81 116.5 15.13 131.5 25.81 139.4l68.39 50.16C104.9 197.4 116.3 203.9 128 209.6V488C128 501.3 138.8 512 152 512s24-10.75 24-24V384h96v104c0 13.25 10.75 24 24 24S320 501.3 320 488V209.6c11.71-5.725 23.09-12.24 33.8-20.1l68.39-50.16C432.9 131.5 435.2 116.5 427.4 105.8zM272 336h-96V226.1C191.7 229.6 207.6 232 224 232s32.34-2.414 48-5.916V336zM224 144c39.75 0 72-32.25 72-72S263.8-.0004 224-.0004S151.1 32.25 151.1 72S184.3 144 224 144z"/></svg>
